!!!!SEGMENT: ss022-Japanese_M.krn
!!!OTL: Japanese
!!!OTL2: Processional Tune
!!!OPR:The Remick Folio of Moving Picture Music
!!!YOY:1914
!!!ONB: National
**kern	**dynam
*clefG2	*
*k[f#c#]	*
*D:	*
*M2/4	*
=1!|:	=1!|:
!LO:TX:a:B:t=Moderato	!
8f#L 8a	mf
8f#J 8a	.
8f#L 8a	.
8eJ 8g	.
=2	=2
8f#L 8a	.
8f#J 8a	.
8f#L 8a	.
8eJ 8g	.
=3	=3
4f# 4a	.
8dL 8f# 8b	fz
8dJ 8f# 8b	.fz
=4	=4
*^	*
(8aL	2A	fz [[
8gJ	.	>
8eL	.	.
8dJ)	.	]]
*v	*v	*
=5	=5
8c# 8e	.
4c# 4e	.
8e 8g	.
=6	=6
*^	*
(8aL	2A	fz
8gJ	.	.
8eL	.	.
8dJ)	.	.
*v	*v	*
=7	=7
8c#L 8e	.
8eJ 8g	.
8.f#L 8.a	.
16eJk 16g	.
=8	=8
2f# 2a	.
=9:|!|:	=9:|!|:
8aL 8ff# 8aa	f
8aJ 8ff# 8aa	.
8aL 8ff# 8aa	.
8gJ 8ee 8gg	.
=10	=10
8aL 8ff# 8aa	.
8aJ 8ff# 8aa	.
8aL 8ff# 8aa	.
8gJ 8ee 8gg	.
=11	=11
4a 4ff# 4aa	fz fz
8bL 8dd 8ff# 8bb	fz
8bJ 8dd 8ff# 8bb	fz
=12	=12
*^	*
(8aaL	2a	fz
8ggJ	.	.
8eeL	.	.
8ddJ)	.	.
=13	=13	=13
8cc# 8ee	2a	.
4cc# 4ee	.	.
8ee 8gg	.	.
=14	=14	=14
(8aaL	2a	.
8ggJ	.	.
8eeL	.	.
8ddJ)	.	.
=15	=15	=15
8cc#L 8ee	2a	.
8eeJ 8gg	.	.
8.ff#L 8.aa	.	.
16eeJk 16gg	.	.
*v	*v	*
=16	=16
2a 2ff# 2aa	.
=:|!	=:|!
*-	*-
!!!ENC: Yukiko Yoden
!!!END: 2022/03/21